svg/fluentui-system-icons/ic_fluent_checkmark_lock_20_filled.svg

<svg width="20" height="20" viewBox="0 0 20 20" fill="none" xmlns="http://www.w3.org/2000/svg">
<path d="M10 2C14.4183 2 18 5.58172 18 10C18 10.1109 17.9977 10.2212 17.9933 10.331C17.4549 9.52834 16.5391 9 15.5 9C13.8431 9 12.5 10.3431 12.5 12V12.063C11.6374 12.285 11 13.0681 11 14V17.9381C10.6724 17.979 10.3387 18 10 18C5.58172 18 2 14.4183 2 10C2 5.58172 5.58172 2 10 2ZM13.3584 7.64645C13.1849 7.47288 12.9154 7.4536 12.7206 7.58859L12.6513 7.64645L9 11.298L7.35355 9.65131L7.28431 9.59346C7.08944 9.45846 6.82001 9.47775 6.64645 9.65131C6.47288 9.82488 6.4536 10.0943 6.58859 10.2892L6.64645 10.3584L8.64645 12.3584L8.71569 12.4163C8.8862 12.5344 9.1138 12.5344 9.28431 12.4163L9.35355 12.3584L13.3584 8.35355L13.4163 8.28431C13.5513 8.08944 13.532 7.82001 13.3584 7.64645ZM15.5 10C16.6046 10 17.5 10.8954 17.5 12V13H18C18.5523 13 19 13.4477 19 14V18C19 18.5523 18.5523 19 18 19H13C12.4477 19 12 18.5523 12 18V14C12 13.4477 12.4477 13 13 13H13.5V12C13.5 10.8954 14.3954 10 15.5 10ZM14.8454 16.3663C14.9738 16.5952 15.2188 16.75 15.5 16.75C15.9142 16.75 16.25 16.4142 16.25 16C16.25 15.742 16.1197 15.5144 15.9213 15.3795C15.8013 15.2978 15.6562 15.25 15.5 15.25C15.0858 15.25 14.75 15.5858 14.75 16C14.75 16.133 14.7846 16.2579 14.8454 16.3663ZM15.5 11C14.9477 11 14.5 11.4477 14.5 12V13H16.5V12C16.5 11.4477 16.0523 11 15.5 11Z" fill="#212121"/>
</svg>

<svg xmlns="http://www.w3.org/2000/svg" width="20" height="20"><path d="M10 2a8 8 0 0 1 7.993 8.331A3 3 0 0 0 12.5 12v.063A2 2 0 0 0 11 14v3.938A8 8 0 1 1 10 2Zm3.358 5.646a.5.5 0 0 0-.637-.057l-.07.057L9 11.298 7.354 9.651l-.07-.058a.5.5 0 0 0-.695.696l.057.07 2 2 .07.057a.5.5 0 0 0 .568 0l.07-.058 4.004-4.004.058-.07a.5.5 0 0 0-.058-.638ZM15.5 10a2 2 0 0 1 2 2v1h.5a1 1 0 0 1 1 1v4a1 1 0 0 1-1 1h-5a1 1 0 0 1-1-1v-4a1 1 0 0 1 1-1h.5v-1a2 2 0 0 1 2-2Zm-.655 6.366a.75.75 0 1 0 1.31-.732.75.75 0 0 0-1.31.732ZM15.5 11a1 1 0 0 0-1 1v1h2v-1a1 1 0 0 0-1-1Z"/></svg>
